X:225
T:No3 of the Calladonions. Le4.225
L:1/8
B:L.Leadley MS#4 c1850
Z:vmp.Mike Hicken 2016 www.village-music-project.org.uk
K:C
Q:1/4=120
M:6/8
K:D
A!p!|d2e d2f|a3 agf|e2d egf|e2B B2c|!f!d2e d2f|a3- agf|egf eBc|d3-d2 !fine!||
!p!f|g2f b2g|f2e a2f|egf efd|cdB ABc|!f!dd^A BBg|gg^d e2g|f2a e2f|d2e d2||
!p!A|d2ed2f|a3- agf|e2d egf|e2B B2c|!f!d2e d2f|a3 -agf|egf eBc|d3- d2||
A|=f3 d3|ag=f agf|e3 c3| g=fe gfe|=fda fda|eca eca|=fag fed|a3 A2 !D.C.!|]

